img/Icon-Swim.svg

<svg fill="none" height="48" viewBox="0 0 47 48" width="47" xmlns="http://www.w3.org/2000/svg"><rect fill="#f15a2b" height="48" rx="13" width="47"/><g fill="#fff"><path d="m32.8184 31.9286c-.4502.0092-.8924-.1196-1.2672-.3691-.2789-.1823-.605-.2793-.9382-.2793-.3333 0-.6593.097-.9383.2793-.3786.2411-.8181.3691-1.267.3691-.4488 0-.8883-.128-1.2669-.3691-.279-.1825-.6051-.2796-.9385-.2796-.3333 0-.6594.0971-.9384.2796-.3786.2411-.8181.3691-1.267.3691-.4488 0-.8883-.128-1.267-.3691-.2787-.1823-.6046-.2795-.9377-.2795-.3332 0-.6591.0972-.9378.2795-.3433.2281-.7439.3549-1.1559.3658l-.0227-.6486c.3043-.0072.5999-.1035.85-.277.3786-.241.818-.369 1.2667-.369s.8881.128 1.2666.369c.279.1824.605.2795.9383.2795s.6593-.0971.9383-.2795c.3786-.2412.8183-.3693 1.2673-.3693.4489 0 .8886.1281 1.2673.3693.2789.1824.605.2795.9382.2795.3333 0 .6594-.0971.9383-.2795.3787-.2409.8182-.3689 1.267-.3689s.8883.128 1.267.3689c.2796.1828.6064.2802.9405.2802s.6609-.0974.9405-.2802c.3744-.2487.8158-.3773 1.2652-.3684v.6486c-.3346-.0091-.6634.0887-.9386.2793-.3757.2498-.8189.3787-1.27.3694z"/><path d="m15.1784 31.9285c-.45.0093-.8921-.1195-1.2668-.3691-.2751-.1908-.6039-.2887-.9386-.2796v-.6486c.4502-.0094.8924.1194 1.2672.369.2749.1908.6037.2888.9382.2796.3347.0092.6636-.0889.9386-.2799.374-.2495.8155-.3782 1.2649-.3687.4385-.0099.8698.113 1.2373.3525l-.3273.5598c-.2684-.1807-.5866-.2729-.91-.2637-.3333-.009-.6608.0887-.9347.2789-.3751.2503-.818.3794-1.2688.3698z"/><path d="m32.8194 29.6579c-.4505.0092-.8929-.1196-1.2681-.3691-.2792-.1824-.6055-.2796-.9391-.2796-.3335 0-.6599.0972-.9391.2796-.3785.241-.818.369-1.2668.369-.4487 0-.8882-.128-1.2668-.369-.2788-.1823-.6048-.2794-.9379-.2794-.3332 0-.6591.0971-.938.2794-.3785.2411-.818.3691-1.2668.3691s-.8883-.128-1.2668-.3691c-.2788-.1823-.6048-.2794-.9379-.2794-.3332 0-.6592.0971-.938.2794-.3746.2496-.8167.3784-1.2668.3691-.4501.0093-.8922-.1195-1.2668-.3691-.2749-.1907-.6035-.2887-.938-.2795-.3343-.0091-.6628.0888-.9376.2795-.374.2493-.8154.3781-1.2649.3691-.4501.0093-.8923-.1195-1.2671-.3691-.2754-.1911-.6048-.2891-.9399-.2795v-.6487c.4501-.0093.8922.1195 1.2668.3691.2752.1907.604.2887.9386.2796.3344.009.6629-.0889.9377-.2796.374-.2493.8154-.3781 1.2648-.3691.4504-.0096.8929.1193 1.2678.3691.275.1908.6037.2887.9383.2796.3345.0091.6633-.0888.9382-.2796.3786-.2411.8181-.3692 1.2669-.3692.4487 0 .8882.1281 1.2668.3692.2788.1824.6048.2795.9381.2795.3332 0 .6592-.0971.9381-.2795.3785-.2411.818-.3692 1.2668-.3692s.8883.1281 1.2668.3692c.2789.1824.6049.2795.9381.2795s.6592-.0971.9381-.2795c.3789-.241.8187-.369 1.2678-.369s.8889.128 1.2678.369c.2794.1823.6058.2794.9394.2794s.66-.0971.9394-.2794c.3751-.2494.8174-.3782 1.2678-.3691v.6487c-.3353-.0095-.6649.0884-.9406.2795-.3749.2493-.817.3781-1.2671.3691z"/><path d="m32.8184 27.388c-.4501.0092-.8923-.1196-1.2671-.3691-.2751-.1907-.604-.2886-.9386-.2795-.2456-.0085-.4895.0439-.7099.1524l-.2861-.5838c.3096-.1517.6513-.2266.996-.2183.4507-.0091.8934.12 1.2684.3701.2797.1828.6065.2801.9406.2801s.6609-.0973.9405-.2801c.3742-.2489.8155-.3777 1.2649-.3691v.6487c-.3346-.0092-.6634.0886-.9386.2792-.3757.2499-.8189.3788-1.2701.3694z"/><path d="m28.4044 27.3879c-.4495.0094-.8909-.1193-1.2649-.3688-.279-.1825-.6051-.2796-.9384-.2796-.3334 0-.6595.0971-.9385.2796-.3786.2411-.8181.3691-1.2669.3691-.4489 0-.8884-.128-1.267-.3691-.279-.1824-.605-.2795-.9383-.2795-.3332 0-.6593.0971-.9382.2795-.3746.2492-.8164.3779-1.2662.3688-.4501.0093-.8922-.1195-1.2668-.3691-.2751-.1907-.604-.2887-.9386-.2796-.3333-.009-.6608.0888-.9347.2789-.3747.2501-.8171.3791-1.2675.3698-.45.0093-.8921-.1195-1.2668-.3691-.2751-.1907-.6039-.2887-.9386-.2796v-.6486c.4502-.0094.8924.1194 1.2672.3691.2749.1907.6037.2887.9382.2795.3347.0092.6636-.0889.9386-.2799.374-.2495.8155-.3782 1.2649-.3687.45-.0093.8922.1195 1.2668.3691.275.1907.6037.2887.9383.2795.3346.0091.6634-.0888.9386-.2795.3786-.2411.8181-.3691 1.2669-.3691.4489 0 .8884.128 1.267.3691.279.1823.605.2794.9383.2794s.6593-.0971.9383-.2794c.3786-.2413.8183-.3694 1.2672-.3694.449 0 .8887.1281 1.2673.3694.2858.1921.6246.2898.9688.2792.025.0003.0501-.001.0749-.0039l.0863.6428c-.0651.0076-.1307.011-.1962.0101z"/><path d="m32.8194 25.1174c-.4505.0092-.8929-.1196-1.2681-.3691-.2792-.1825-.6055-.2796-.9391-.2796-.3335 0-.6599.0971-.9391.2796-.3785.241-.818.369-1.2668.369-.4487 0-.8882-.128-1.2668-.369-.2788-.1824-.6048-.2795-.9379-.2795-.3332 0-.6591.0971-.938.2795-.3785.241-.818.3691-1.2668.3691s-.8883-.1281-1.2668-.3691c-.2788-.1824-.6048-.2795-.9379-.2795-.3332 0-.6592.0971-.938.2795-.3746.2496-.8167.3784-1.2668.3691-.4501.0093-.8922-.1195-1.2668-.3691-.2749-.1908-.6035-.2887-.938-.2796-.3343-.0091-.6628.0889-.9376.2796-.374.2493-.8154.3781-1.2649.3691-.4501.0093-.8923-.1195-1.2671-.3691-.2754-.1911-.6048-.2891-.9399-.2796v-.6486c.4501-.0093.8922.1195 1.2668.3691.2752.1907.604.2886.9386.2795.3344.0091.6629-.0888.9377-.2795.374-.2494.8154-.3782 1.2648-.3691.4504-.0096.8929.1192 1.2678.3691.275.1907.6037.2887.9383.2795.3345.0092.6633-.0888.9382-.2795.3786-.2411.8181-.3692 1.2669-.3692.4487 0 .8882.1281 1.2668.3692.2788.1823.6048.2795.9381.2795.3332 0 .6592-.0972.9381-.2795.3785-.2411.818-.3692 1.2668-.3692s.8883.1281 1.2668.3692c.2789.1823.6049.2795.9381.2795s.6592-.0972.9381-.2795c.3789-.241.8187-.369 1.2678-.369s.8889.128 1.2678.369c.2794.1823.6058.2794.9394.2794s.66-.0971.9394-.2794c.3751-.2495.8174-.3783 1.2678-.3691v.6486c-.3353-.0095-.6649.0885-.9406.2796-.3749.2493-.817.3781-1.2671.3691z"/><path d="m28.1978 24.8423-.612-.2147c.1576-.4528.222-.9329.1893-1.4113-.0327-.4783-.1618-.9452-.3797-1.3723l-2.2277-4.3625c-.022-.0431-.0341-.0906-.0354-.1389-.0013-.0484.0083-.0964.0279-.1406.0197-.0442.049-.0834.0859-.1148.0368-.0314.0801-.0541.1269-.0666l4.4396-1.1838c.1447-.0378.2686-.1312.3447-.26.0762-.1287.0984-.2822.0619-.4273-.0365-.145-.1288-.2697-.2568-.347s-.2814-.101-.4267-.0658l-5.3734 1.2843c-.1149.0272-.222.0804-.313.1556s-.1635.1703-.2118.278-.0712.225-.0669.343c.0044.1179.0358.2333.0919.3372l1.5956 2.9643c.0405.0753.0496.1636.0253.2456s-.08.1511-.155.1922l-2.0594 1.1352-.313-.5683 1.7779-.9801-1.4419-2.6815c-.1032-.1914-.1609-.404-.1688-.6213s.0344-.4335.1234-.6319.2225-.3736.3901-.5122.3648-.2367.5764-.2869l5.3708-1.284c.3126-.079.6439-.0306.9208.1347.277.1652.477.4337.556.7463.079.3127.0306.6439-.1347.9209-.1652.277-.4337.4769-.7463.5559l-4.0522 1.08 2.0459 4.0048c.2576.5055.4103 1.0579.4489 1.624.0385.566-.0378 1.134-.2245 1.6698z"/><path d="m21.6223 21.7338-3.9413 2.1717.3129.5678 3.9413-2.1717z"/><path d="m31.1352 22.6849c-.4811 0-.9514-.1426-1.3514-.4099s-.7118-.6472-.8959-1.0916c-.1841-.4445-.2323-.9336-.1384-1.4054.0939-.4719.3255-.9053.6657-1.2455s.7736-.5718 1.2454-.6657c.4719-.0938.961-.0457 1.4054.1384.4445.1841.8244.4959 1.0917.8959s.4099.8703.4099 1.3514c-.0007.6449-.2572 1.2632-.7132 1.7192-.456.4561-1.0743.7125-1.7192.7132zm0-4.2162c-.3528 0-.6977.1046-.991.3006-.2934.196-.522.4746-.657.8006-.135.3259-.1703.6846-.1015 1.0306s.2387.6639.4882.9133c.2494.2495.5673.4194.9133.4882s.7047.0335 1.0306-.1015c.326-.135.6045-.3636.8005-.657.1961-.2933.3007-.6382.3007-.991-.0006-.4729-.1888-.9263-.5231-1.2607-.3344-.3344-.7878-.5225-1.2607-.5231z"/></g></svg>

<svg width="47" height="48" viewBox="0 0 47 48" fill="none" xmlns="http://www.w3.org/2000/svg">
<g id="Group 12">
<rect id="Rectangle 21" width="47" height="48" rx="13" fill="#F15A2B"/>
<g id="water-sport 1">
<path id="Vector" d="M32.8184 31.9286C32.3682 31.9378 31.926 31.809 31.5512 31.5595C31.2723 31.3772 30.9462 31.2802 30.613 31.2802C30.2797 31.2802 29.9537 31.3772 29.6747 31.5595C29.2961 31.8006 28.8566 31.9286 28.4077 31.9286C27.9589 31.9286 27.5194 31.8006 27.1408 31.5595C26.8618 31.377 26.5357 31.2799 26.2023 31.2799C25.869 31.2799 25.5429 31.377 25.2639 31.5595C24.8853 31.8006 24.4458 31.9286 23.9969 31.9286C23.5481 31.9286 23.1086 31.8006 22.7299 31.5595C22.4512 31.3772 22.1253 31.28 21.7922 31.28C21.459 31.28 21.1331 31.3772 20.8544 31.5595C20.5111 31.7876 20.1105 31.9144 19.6985 31.9253L19.6758 31.2767C19.9801 31.2695 20.2757 31.1732 20.5258 30.9997C20.9044 30.7587 21.3438 30.6307 21.7925 30.6307C22.2412 30.6307 22.6806 30.7587 23.0591 30.9997C23.3381 31.1821 23.6641 31.2792 23.9974 31.2792C24.3307 31.2792 24.6567 31.1821 24.9357 30.9997C25.3143 30.7585 25.754 30.6304 26.203 30.6304C26.6519 30.6304 27.0916 30.7585 27.4703 30.9997C27.7492 31.1821 28.0753 31.2792 28.4085 31.2792C28.7418 31.2792 29.0679 31.1821 29.3468 30.9997C29.7255 30.7588 30.165 30.6308 30.6138 30.6308C31.0626 30.6308 31.5021 30.7588 31.8808 30.9997C32.1604 31.1825 32.4872 31.2799 32.8213 31.2799C33.1554 31.2799 33.4822 31.1825 33.7618 30.9997C34.1362 30.751 34.5776 30.6224 35.027 30.6313V31.2799C34.6924 31.2708 34.3636 31.3686 34.0884 31.5592C33.7127 31.809 33.2695 31.9379 32.8184 31.9286Z" fill="white"/>
<path id="Vector_2" d="M15.1784 31.9285C14.7284 31.9378 14.2863 31.809 13.9116 31.5594C13.6365 31.3686 13.3077 31.2707 12.973 31.2798V30.6312C13.4232 30.6218 13.8654 30.7506 14.2402 31.0002C14.5151 31.191 14.8439 31.289 15.1784 31.2798C15.5131 31.289 15.842 31.1909 16.117 30.9999C16.491 30.7504 16.9325 30.6217 17.3819 30.6312C17.8204 30.6213 18.2517 30.7442 18.6192 30.9837L18.2919 31.5435C18.0235 31.3628 17.7053 31.2706 17.3819 31.2798C17.0486 31.2708 16.7211 31.3685 16.4472 31.5587C16.0721 31.809 15.6292 31.9381 15.1784 31.9285Z" fill="white"/>
<path id="Vector_3" d="M32.8194 29.6579C32.3689 29.6671 31.9265 29.5383 31.5513 29.2888C31.2721 29.1064 30.9458 29.0092 30.6122 29.0092C30.2787 29.0092 29.9523 29.1064 29.6731 29.2888C29.2946 29.5298 28.8551 29.6578 28.4063 29.6578C27.9576 29.6578 27.5181 29.5298 27.1395 29.2888C26.8607 29.1065 26.5347 29.0094 26.2016 29.0094C25.8684 29.0094 25.5425 29.1065 25.2636 29.2888C24.8851 29.5299 24.4456 29.6579 23.9968 29.6579C23.548 29.6579 23.1085 29.5299 22.73 29.2888C22.4512 29.1065 22.1252 29.0094 21.7921 29.0094C21.4589 29.0094 21.1329 29.1065 20.8541 29.2888C20.4795 29.5384 20.0374 29.6672 19.5873 29.6579C19.1372 29.6672 18.6951 29.5384 18.3205 29.2888C18.0456 29.0981 17.717 29.0001 17.3825 29.0093C17.0482 29.0002 16.7197 29.0981 16.4449 29.2888C16.0709 29.5381 15.6295 29.6669 15.18 29.6579C14.7299 29.6672 14.2877 29.5384 13.9129 29.2888C13.6375 29.0977 13.3081 28.9997 12.973 29.0093V28.3606C13.4231 28.3513 13.8652 28.4801 14.2398 28.7297C14.515 28.9204 14.8438 29.0184 15.1784 29.0093C15.5128 29.0183 15.8413 28.9204 16.1161 28.7297C16.4901 28.4804 16.9315 28.3516 17.3809 28.3606C17.8313 28.351 18.2738 28.4799 18.6487 28.7297C18.9237 28.9205 19.2524 29.0184 19.587 29.0093C19.9215 29.0184 20.2503 28.9205 20.5252 28.7297C20.9038 28.4886 21.3433 28.3605 21.7921 28.3605C22.2408 28.3605 22.6803 28.4886 23.0589 28.7297C23.3377 28.9121 23.6637 29.0092 23.997 29.0092C24.3302 29.0092 24.6562 28.9121 24.9351 28.7297C25.3136 28.4886 25.7531 28.3605 26.2019 28.3605C26.6507 28.3605 27.0902 28.4886 27.4687 28.7297C27.7476 28.9121 28.0736 29.0092 28.4068 29.0092C28.74 29.0092 29.066 28.9121 29.3449 28.7297C29.7238 28.4887 30.1636 28.3607 30.6127 28.3607C31.0618 28.3607 31.5016 28.4887 31.8805 28.7297C32.1599 28.912 32.4863 29.0091 32.8199 29.0091C33.1535 29.0091 33.4799 28.912 33.7593 28.7297C34.1344 28.4803 34.5767 28.3515 35.0271 28.3606V29.0093C34.6918 28.9998 34.3622 29.0977 34.0865 29.2888C33.7116 29.5381 33.2695 29.6669 32.8194 29.6579Z" fill="white"/>
<path id="Vector_4" d="M32.8184 27.388C32.3683 27.3972 31.9261 27.2684 31.5513 27.0189C31.2762 26.8282 30.9473 26.7303 30.6127 26.7394C30.3671 26.7309 30.1232 26.7833 29.9028 26.8918L29.6167 26.308C29.9263 26.1563 30.268 26.0814 30.6127 26.0897C31.0634 26.0806 31.5061 26.2097 31.8811 26.4598C32.1608 26.6426 32.4876 26.7399 32.8217 26.7399C33.1558 26.7399 33.4826 26.6426 33.7622 26.4598C34.1364 26.2109 34.5777 26.0821 35.0271 26.0907V26.7394C34.6925 26.7302 34.3637 26.828 34.0885 27.0186C33.7128 27.2685 33.2696 27.3974 32.8184 27.388Z" fill="white"/>
<path id="Vector_5" d="M28.4044 27.3879C27.9549 27.3973 27.5135 27.2686 27.1395 27.0191C26.8605 26.8366 26.5344 26.7395 26.2011 26.7395C25.8677 26.7395 25.5416 26.8366 25.2626 27.0191C24.884 27.2602 24.4445 27.3882 23.9957 27.3882C23.5468 27.3882 23.1073 27.2602 22.7287 27.0191C22.4497 26.8367 22.1237 26.7396 21.7904 26.7396C21.4572 26.7396 21.1311 26.8367 20.8522 27.0191C20.4776 27.2683 20.0358 27.397 19.586 27.3879C19.1359 27.3972 18.6938 27.2684 18.3192 27.0188C18.0441 26.8281 17.7152 26.7301 17.3806 26.7392C17.0473 26.7302 16.7198 26.828 16.4459 27.0181C16.0712 27.2682 15.6288 27.3972 15.1784 27.3879C14.7284 27.3972 14.2863 27.2684 13.9116 27.0188C13.6365 26.8281 13.3077 26.7301 12.973 26.7392V26.0906C13.4232 26.0812 13.8654 26.21 14.2402 26.4597C14.5151 26.6504 14.8439 26.7484 15.1784 26.7392C15.5131 26.7484 15.842 26.6503 16.117 26.4593C16.491 26.2098 16.9325 26.0811 17.3819 26.0906C17.8319 26.0813 18.2741 26.2101 18.6487 26.4597C18.9237 26.6504 19.2524 26.7484 19.587 26.7392C19.9216 26.7483 20.2504 26.6504 20.5256 26.4597C20.9042 26.2186 21.3437 26.0906 21.7925 26.0906C22.2414 26.0906 22.6809 26.2186 23.0595 26.4597C23.3385 26.642 23.6645 26.7391 23.9978 26.7391C24.3311 26.7391 24.6571 26.642 24.9361 26.4597C25.3147 26.2184 25.7544 26.0903 26.2033 26.0903C26.6523 26.0903 27.092 26.2184 27.4706 26.4597C27.7564 26.6518 28.0952 26.7495 28.4394 26.7389C28.4644 26.7392 28.4895 26.7379 28.5143 26.735L28.6006 27.3778C28.5355 27.3854 28.4699 27.3888 28.4044 27.3879Z" fill="white"/>
<path id="Vector_6" d="M32.8194 25.1174C32.3689 25.1266 31.9265 24.9978 31.5513 24.7483C31.2721 24.5658 30.9458 24.4687 30.6122 24.4687C30.2787 24.4687 29.9523 24.5658 29.6731 24.7483C29.2946 24.9893 28.8551 25.1173 28.4063 25.1173C27.9576 25.1173 27.5181 24.9893 27.1395 24.7483C26.8607 24.5659 26.5347 24.4688 26.2016 24.4688C25.8684 24.4688 25.5425 24.5659 25.2636 24.7483C24.8851 24.9893 24.4456 25.1174 23.9968 25.1174C23.548 25.1174 23.1085 24.9893 22.73 24.7483C22.4512 24.5659 22.1252 24.4688 21.7921 24.4688C21.4589 24.4688 21.1329 24.5659 20.8541 24.7483C20.4795 24.9979 20.0374 25.1267 19.5873 25.1174C19.1372 25.1267 18.6951 24.9979 18.3205 24.7483C18.0456 24.5575 17.717 24.4596 17.3825 24.4687C17.0482 24.4596 16.7197 24.5576 16.4449 24.7483C16.0709 24.9976 15.6295 25.1264 15.18 25.1174C14.7299 25.1267 14.2877 24.9979 13.9129 24.7483C13.6375 24.5572 13.3081 24.4592 12.973 24.4687V23.8201C13.4231 23.8108 13.8652 23.9396 14.2398 24.1892C14.515 24.3799 14.8438 24.4778 15.1784 24.4687C15.5128 24.4778 15.8413 24.3799 16.1161 24.1892C16.4901 23.9398 16.9315 23.811 17.3809 23.8201C17.8313 23.8105 18.2738 23.9393 18.6487 24.1892C18.9237 24.3799 19.2524 24.4779 19.587 24.4687C19.9215 24.4779 20.2503 24.3799 20.5252 24.1892C20.9038 23.9481 21.3433 23.82 21.7921 23.82C22.2408 23.82 22.6803 23.9481 23.0589 24.1892C23.3377 24.3715 23.6637 24.4687 23.997 24.4687C24.3302 24.4687 24.6562 24.3715 24.9351 24.1892C25.3136 23.9481 25.7531 23.82 26.2019 23.82C26.6507 23.82 27.0902 23.9481 27.4687 24.1892C27.7476 24.3715 28.0736 24.4687 28.4068 24.4687C28.74 24.4687 29.066 24.3715 29.3449 24.1892C29.7238 23.9482 30.1636 23.8202 30.6127 23.8202C31.0618 23.8202 31.5016 23.9482 31.8805 24.1892C32.1599 24.3715 32.4863 24.4686 32.8199 24.4686C33.1535 24.4686 33.4799 24.3715 33.7593 24.1892C34.1344 23.9397 34.5767 23.8109 35.0271 23.8201V24.4687C34.6918 24.4592 34.3622 24.5572 34.0865 24.7483C33.7116 24.9976 33.2695 25.1264 32.8194 25.1174Z" fill="white"/>
<path id="Vector_7" d="M28.1978 24.8423L27.5858 24.6276C27.7434 24.1748 27.8078 23.6947 27.7751 23.2163C27.7424 22.738 27.6133 22.2711 27.3954 21.844L25.1677 17.4815C25.1457 17.4384 25.1336 17.3909 25.1323 17.3426C25.131 17.2942 25.1406 17.2462 25.1602 17.202C25.1799 17.1578 25.2092 17.1186 25.2461 17.0872C25.2829 17.0558 25.3262 17.0331 25.373 17.0206L29.8126 15.8368C29.9573 15.799 30.0812 15.7056 30.1573 15.5768C30.2335 15.4481 30.2557 15.2946 30.2192 15.1495C30.1827 15.0045 30.0904 14.8798 29.9624 14.8025C29.8344 14.7252 29.681 14.7015 29.5357 14.7367L24.1623 16.021C24.0474 16.0482 23.9403 16.1014 23.8493 16.1766C23.7583 16.2518 23.6858 16.3469 23.6375 16.4546C23.5892 16.5623 23.5663 16.6796 23.5706 16.7976C23.575 16.9155 23.6064 17.0309 23.6625 17.1348L25.2581 20.0991C25.2986 20.1744 25.3077 20.2627 25.2834 20.3447C25.2591 20.4267 25.2034 20.4958 25.1284 20.5369L23.069 21.6721L22.756 21.1038L24.5339 20.1237L23.092 17.4422C22.9888 17.2508 22.9311 17.0382 22.9232 16.8209C22.9153 16.6036 22.9576 16.3874 23.0466 16.189C23.1356 15.9906 23.2691 15.8154 23.4367 15.6768C23.6043 15.5382 23.8015 15.4401 24.0131 15.3899L29.3839 14.1059C29.6965 14.0269 30.0278 14.0753 30.3047 14.2406C30.5817 14.4058 30.7817 14.6743 30.8607 14.9869C30.9397 15.2996 30.8913 15.6308 30.726 15.9078C30.5608 16.1848 30.2923 16.3847 29.9797 16.4637L25.9275 17.5437L27.9734 21.5485C28.231 22.054 28.3837 22.6064 28.4223 23.1725C28.4608 23.7385 28.3845 24.3065 28.1978 24.8423Z" fill="white"/>
<path id="Vector_8" d="M21.6223 21.7338L17.681 23.9055L17.9939 24.4733L21.9352 22.3016L21.6223 21.7338Z" fill="white"/>
<path id="Vector_9" d="M31.1352 22.6849C30.6541 22.6849 30.1838 22.5423 29.7838 22.275C29.3838 22.0077 29.072 21.6278 28.8879 21.1834C28.7038 20.7389 28.6556 20.2498 28.7495 19.778C28.8434 19.3061 29.075 18.8727 29.4152 18.5325C29.7554 18.1923 30.1888 17.9607 30.6606 17.8668C31.1325 17.773 31.6216 17.8211 32.066 18.0052C32.5105 18.1893 32.8904 18.5011 33.1577 18.9011C33.425 19.3011 33.5676 19.7714 33.5676 20.2525C33.5669 20.8974 33.3104 21.5157 32.8544 21.9717C32.3984 22.4278 31.7801 22.6842 31.1352 22.6849ZM31.1352 18.4687C30.7824 18.4687 30.4375 18.5733 30.1442 18.7693C29.8508 18.9653 29.6222 19.2439 29.4872 19.5699C29.3522 19.8958 29.3169 20.2545 29.3857 20.6005C29.4545 20.9465 29.6244 21.2644 29.8739 21.5138C30.1233 21.7633 30.4412 21.9332 30.7872 22.002C31.1332 22.0708 31.4919 22.0355 31.8178 21.9005C32.1438 21.7655 32.4223 21.5369 32.6183 21.2435C32.8144 20.9502 32.919 20.6053 32.919 20.2525C32.9184 19.7796 32.7302 19.3262 32.3959 18.9918C32.0615 18.6574 31.6081 18.4693 31.1352 18.4687Z" fill="white"/>
</g>
</g>
</svg>
